X:1
T:Where the Southern Crosses the Dog
L:1/8
Q:1/4=120
M:2/2
I:linebreak $
K:C
V:1 treble 
V:1
"^Moderate" [Bg]4 [Bg]3 [Bg]- | [Bg] a2 g e2 | [Gc]2 G2 [Gc]G A2 | c2 ([de-]2 [ee]2) g2 ed c2 | %4
 B8- B2 | [Bg]4 [Bg]3 a | g2 !slide!e2- edcG [DA]2 | [Ec]6 _E2- |$ ED=Ec- c2 A2 | %9
 ED E2 [Ec]6 _E2- | ED=Ec- c2 A2 | ED E2 [Ec]6 [G_B]2- | [GB][GA][G=B][Bg]- [Bg]2 f2 | %13
 d B3 g6 _B- |$ BA=Bg- g2 f2 | d B3 g6 || %16
